X: 7
T:Jimmy Ward's
M:6/8
L:1/8
F:http://blackrosetheband.googlepages.com/ABCTUNES.ABC May 2009
S:Traditional
K:G
||:"G"~G3 GAB|"C"AGE "D"GED|"G"~G3 "C"AGE|"D"GED ~D3|
"G"~G3 GAB|"C"AGE "G"GAB|"Am"cBA "G"BGE|"D"DED ~D3:|
|:"Am"cBA "G"BAG|"D"~A3 AGE|"Am"cBA "G"BGE|"D"GED "G"GAB|
"Am"c2c "G"BAG|"D"A3 ABc|"Am"dcA "G"{B}AGE|"D"GED D3:||

